X: 18
T:Out on the Ocean [in A]
M:6/8
L:1/8
R:Double Jig
K:A
F[|:E2c cBA|cec BcB|AFE A2B|~c3 BAF|!
E2c cBA|cec BcB|AFE A2B|1cAG A2F:|2cAG Ace|]!
fgf fec|fgf fec|efe ece|fec ecB|!
A2B c2e|faf ecB|AFE A2B|cAG Ace||!
fgf fec|fgf fec|efe efg|agf ecB|!
A2B c2e|faf fec|AFE A2B|cAG A2F|]!
